svg/map/map_pin_fill.svg

<?xml version="1.0" encoding="UTF-8"?>
<svg width="24px" height="24px" viewBox="0 0 24 24" version="1.1" xmlns="http://www.w3.org/2000/svg" xmlns:xlink="http://www.w3.org/1999/xlink">
    <title>map_pin_fill</title>
    <g id="页面-1" stroke="none" stroke-width="1" fill="none" fill-rule="evenodd">
        <g id="Map" transform="translate(-912.000000, -48.000000)">
            <g id="map_pin_fill" transform="translate(912.000000, 48.000000)">
                 <path d="M24,0 L24,24 L0,24 L0,0 L24,0 Z M12.5934901,23.257841 L12.5819402,23.2595131 L12.5108777,23.2950439 L12.4918791,23.2987469 L12.4918791,23.2987469 L12.4767152,23.2950439 L12.4056548,23.2595131 C12.3958229,23.2563662 12.3870493,23.2590235 12.3821421,23.2649074 L12.3780323,23.275831 L12.360941,23.7031097 L12.3658947,23.7234994 L12.3769048,23.7357139 L12.4804777,23.8096931 L12.4953491,23.8136134 L12.4953491,23.8136134 L12.5071152,23.8096931 L12.6106902,23.7357139 L12.6232938,23.7196733 L12.6232938,23.7196733 L12.6266527,23.7031097 L12.609561,23.275831 C12.6075724,23.2657013 12.6010112,23.2592993 12.5934901,23.257841 L12.5934901,23.257841 Z M12.8583906,23.1452862 L12.8445485,23.1473072 L12.6598443,23.2396597 L12.6498822,23.2499052 L12.6498822,23.2499052 L12.6471943,23.2611114 L12.6650943,23.6906389 L12.6699349,23.7034178 L12.6699349,23.7034178 L12.678386,23.7104931 L12.8793402,23.8032389 C12.8914285,23.8068999 12.9022333,23.8029875 12.9078286,23.7952264 L12.9118235,23.7811639 L12.8776777,23.1665331 C12.8752882,23.1545897 12.8674102,23.1470016 12.8583906,23.1452862 L12.8583906,23.1452862 Z M12.1430473,23.1473072 C12.1332178,23.1423925 12.1221763,23.1452606 12.1156365,23.1525954 L12.1099173,23.1665331 L12.0757714,23.7811639 C12.0751323,23.7926639 12.0828099,23.8018602 12.0926481,23.8045676 L12.108256,23.8032389 L12.3092106,23.7104931 L12.3186497,23.7024347 L12.3186497,23.7024347 L12.3225043,23.6906389 L12.340401,23.2611114 L12.337245,23.2485176 L12.337245,23.2485176 L12.3277531,23.2396597 L12.1430473,23.1473072 Z" id="MingCute" fill-rule="nonzero"></path>
                <path d="M7,7 C7,4.23858 9.23858,2 12,2 C14.7614,2 17,4.23858 17,7 C17,9.41896 15.2822,11.4367 13,11.9 L13,17 C13,17.5523 12.5523,18 12,18 C11.4477,18 11,17.5523 11,17 L11,11.9 C8.71776,11.4367 7,9.41896 7,7 Z M9.4886,16.1008 C9.57175,16.6468 9.19654,17.1568 8.65055,17.2399 C7.37324,17.4345 6.35762,17.7286 5.69077,18.0552 C5.35587,18.2192 5.15685,18.3684 5.05419,18.4767 C5.04603,18.4853 5.03886,18.4932 5.03256,18.5005 C5.06568,18.5389 5.12363,18.5955 5.22292,18.6688 C5.50289,18.8757 5.97193,19.1041 6.64142,19.3133 C7.9685,19.728 9.86323,20 12,20 C14.1368,20 16.0315,19.728 17.3586,19.3133 C18.0281,19.1041 18.4971,18.8757 18.7771,18.6688 C18.8764,18.5955 18.9343,18.5389 18.9674,18.5005 C18.9611,18.4932 18.954,18.4853 18.9458,18.4767 C18.8431,18.3684 18.6441,18.2192 18.3092,18.0552 C17.6424,17.7286 16.6268,17.4345 15.3495,17.2399 C14.8035,17.1568 14.4283,16.6468 14.5114,16.1008 C14.5945,15.5548 15.1046,15.1796 15.6505,15.2627 C17.0375,15.4739 18.2719,15.8099 19.1889,16.2591 C19.646,16.4829 20.0725,16.7581 20.3973,17.1007 C20.7267,17.4482 21,17.9208 21,18.5 C21,19.3114 20.4757,19.9005 19.9656,20.2774 C19.4359,20.6688 18.7334,20.9791 17.9551,21.2223 C16.3868,21.7124 14.2815,22 12,22 C9.71849,22 7.61323,21.7124 6.04487,21.2223 C5.26665,20.9791 4.56412,20.6688 4.03444,20.2774 C3.52434,19.9005 3,19.3114 3,18.5 C3,17.9208 3.27333,17.4482 3.60275,17.1007 C3.92755,16.7581 4.35398,16.4829 4.81105,16.2591 C5.72815,15.8099 6.96253,15.4739 8.34945,15.2627 C8.89544,15.1796 9.40546,15.5548 9.4886,16.1008 Z" id="形状" fill="#09244B"></path>
            </g>
        </g>
    </g>
</svg>

<svg xmlns="http://www.w3.org/2000/svg" width="24" height="24"><g fill="none" fill-rule="evenodd"><path d="M24 0v24H0V0h24ZM12.593 23.258l-.011.002-.071.035-.02.004-.014-.004-.071-.035c-.01-.004-.019-.001-.024.005l-.004.01-.017.428.005.02.01.013.104.074.015.004.012-.004.104-.074.012-.016.004-.017-.017-.427c-.002-.01-.009-.017-.017-.018Zm.265-.113-.013.002-.185.093-.01.01-.003.011.018.43.005.012.008.007.201.093c.012.004.023 0 .029-.008l.004-.014-.034-.614c-.003-.012-.01-.02-.02-.022Zm-.715.002a.023.023 0 0 0-.027.006l-.006.014-.034.614c0 .012.007.02.017.024l.015-.002.201-.093.01-.008.004-.011.017-.43-.003-.012-.01-.01-.184-.092Z"/><path fill="#09244B" d="M7 7a5 5 0 1 1 6 4.9V17a1 1 0 1 1-2 0v-5.1A5.002 5.002 0 0 1 7 7Zm2.489 9.1a1 1 0 0 1-.838 1.14c-1.278.195-2.293.489-2.96.815-.335.164-.534.313-.637.422a.685.685 0 0 0-.021.023c.033.039.09.096.19.169.28.207.749.435 1.418.644C7.968 19.728 9.863 20 12 20s4.032-.272 5.359-.687c.67-.209 1.138-.437 1.418-.644.1-.073.157-.13.19-.169a.644.644 0 0 0-.021-.023c-.103-.109-.302-.258-.637-.422-.667-.326-1.682-.62-2.96-.815a1 1 0 1 1 .301-1.977c1.388.21 2.622.547 3.539.996.457.224.884.5 1.208.842.33.347.603.82.603 1.399 0 .811-.524 1.4-1.034 1.777-.53.392-1.233.702-2.01.945-1.57.49-3.674.778-5.956.778-2.282 0-4.387-.288-5.955-.778-.778-.243-1.48-.553-2.01-.945C3.524 19.9 3 19.311 3 18.5c0-.58.273-1.052.603-1.4.325-.342.751-.617 1.208-.84.917-.45 2.152-.786 3.538-.997a1 1 0 0 1 1.14.838Z"/></g></svg>
